X: 5723
T: Café Racer
R: slip jig
M: 9/8
K: Bminor
|:B2B2d2 f3|B2f aBf fee|B2A ABd fee|B2A ABa gfd|
B2B2d2 f3|B2f aBf fee|B2A ABd f2=f|edB BBB BAF:|
|:Bff fBa fBB|Bff fBa fB(d|d)Bd dB(d d)BB|Bff fBa gfd|
Bff fBa fBB|Bag fBa fB(d|d)Bd dB(d d)BB|BdB BAF FAc:|

